src/24/actions/gnumeric-format-border-top-n-double-bottom.svg

<svg xmlns="http://www.w3.org/2000/svg" viewBox="0 0 24 24"><defs id="defs3051"><style type="text/css" id="current-color-scheme">.ColorScheme-Text{color:#5d656b}</style></defs><path d="M4 3v15h1v-6h7v6h1v-6h7v6h1V3H4zm1 1h7v7H5V4zm8 0h7v7h-7V4z" class="ColorScheme-Text" fill="currentColor" fill-opacity=".1"/><path d="M5 4v7h7V4H5zm8 0v7h7V4h-7zm-8 8v6h7v-6H5zm8 0v6h7v-6h-7z" class="ColorScheme-Text" fill="currentColor" fill-opacity=".5"/><path d="M4 3v1h17V3H4zm0 14v1h17v-1H4zm0 2v1h17v-1H4z" class="ColorScheme-Text" fill="currentColor"/></svg>

<svg xmlns="http://www.w3.org/2000/svg" viewBox="0 0 24 24">
  <defs id="defs3051">
    <style type="text/css" id="current-color-scheme">
      .ColorScheme-Text {
        color:#5d656b;
      }
      </style>
  </defs>
 <path 
     style="fill:currentColor;fill-opacity:0.1;stroke:none" 
     d="M 4 3 L 4 4 L 4 11 L 4 12 L 4 18 L 5 18 L 5 12 L 12 12 L 12 18 L 13 18 L 13 12 L 20 12 L 20 18 L 21 18 L 21 3 L 5 3 L 4 3 z M 5 4 L 12 4 L 12 11 L 5 11 L 5 4 z M 13 4 L 20 4 L 20 11 L 13 11 L 13 4 z "
     class="ColorScheme-Text"
     />
 <path 
     style="fill:currentColor;fill-opacity:0.5;stroke:none" 
     d="M 5 4 L 5 11 L 12 11 L 12 4 L 5 4 z M 13 4 L 13 11 L 20 11 L 20 4 L 13 4 z M 5 12 L 5 18 L 12 18 L 12 12 L 5 12 z M 13 12 L 13 18 L 20 18 L 20 12 L 13 12 z "
     class="ColorScheme-Text"
     />
 <path 
     style="fill:currentColor;fill-opacity:1.0;stroke:none" 
     d="M 4 3 L 4 4 L 21 4 L 21 3 L 4 3 z M 4 17 L 4 18 L 21 18 L 21 17 L 4 17 z M 4 19 L 4 20 L 21 20 L 21 19 L 4 19 z "
     class="ColorScheme-Text"
     />
</svg>
